X:419
T:Reel 419
M:4/4
K:Emin
L:1/8
fe|dBBA d2de|dBAF FEEA|d2Bc defe|fbaf e2de|fBBc d2dB|AFFA ABcdec|defd edBe|dBAF F2|Fe|dBBe d2dB|ABde fgac'|ebba fbba|bfaf egfe|dBBc defe|fBed Bdfe|a2ge fgfe|dBAF F2|
